svgs/sharp-solid/money-bill-wheat.svg

<svg xmlns="http://www.w3.org/2000/svg" viewBox="0 0 512 512"><!--! Font Awesome Pro 6.6.0 by @fontawesome - https://fontawesome.com License - https://fontawesome.com/license (Commercial License) Copyright 2024 Fonticons, Inc. --><path d="M176 0c44.2 0 80 35.8 80 80l0 16-16 0c-44.2 0-80-35.8-80-80l0-16 16 0zM56 16l48 0 24 0 0 48-24 0L56 64 32 64l0-48 24 0zM24 88l112 0 24 0 0 48-24 0L24 136 0 136 0 88l24 0zm8 72l24 0 48 0 24 0 0 48-24 0-48 0-24 0 0-48zM272 0l16 0c44.2 0 80 35.8 80 80l0 16-16 0c-44.2 0-80-35.8-80-80l0-16zM400 0c44.2 0 80 35.8 80 80l0 16-16 0c-44.2 0-80-35.8-80-80l0-16 16 0zm80 128l0 16c0 44.2-35.8 80-80 80l-16 0 0-16c0-44.2 35.8-80 80-80l16 0zm-128 0l16 0 0 16c0 44.2-35.8 80-80 80l-16 0 0-16c0-44.2 35.8-80 80-80zm-96 0l0 16c0 44.2-35.8 80-80 80l-16 0 0-16c0-44.2 35.8-80 80-80l16 0zM0 512L0 256l512 0 0 256L0 512zm48-96l0 48 48 0c0-26.5-21.5-48-48-48zM96 304l-48 0 0 48c26.5 0 48-21.5 48-48zM464 416c-26.5 0-48 21.5-48 48l48 0 0-48zM416 304c0 26.5 21.5 48 48 48l0-48-48 0zm-96 80a64 64 0 1 0 -128 0 64 64 0 1 0 128 0z"/></svg>

<svg xmlns="http://www.w3.org/2000/svg" viewBox="0 0 512 512"><!--! Font Awesome Pro 6.4.2 by @fontawesome - https://fontawesome.com License - https://fontawesome.com/license (Commercial License) Copyright 2023 Fonticons, Inc. --><path d="M176 0c44.2 0 80 35.8 80 80V96H240c-44.2 0-80-35.8-80-80V0h16zM56 16h48 24V64H104 56 32V16H56zM24 88H136h24v48H136 24 0V88H24zm8 72H56h48 24v48H104 56 32V160zM272 0h16c44.2 0 80 35.8 80 80V96H352c-44.2 0-80-35.8-80-80V0zM400 0c44.2 0 80 35.8 80 80V96H464c-44.2 0-80-35.8-80-80V0h16zm80 128v16c0 44.2-35.8 80-80 80H384V208c0-44.2 35.8-80 80-80h16zm-128 0h16v16c0 44.2-35.8 80-80 80H272V208c0-44.2 35.8-80 80-80zm-96 0v16c0 44.2-35.8 80-80 80H160V208c0-44.2 35.8-80 80-80h16zM0 512V256H512V512H0zm48-96v48H96c0-26.5-21.5-48-48-48zM96 304H48v48c26.5 0 48-21.5 48-48zM464 416c-26.5 0-48 21.5-48 48h48V416zM416 304c0 26.5 21.5 48 48 48V304H416zm-96 80a64 64 0 1 0 -128 0 64 64 0 1 0 128 0z"/></svg>
